X:1
T:[ID 1-142b]
T:[ID 1-142b]
T:Bezeichnung standardisiert: Menuet Frey Meyer Menuet Frey Meyer In dieser Quelle auch als: Menuet; Menuet Frey Me\"yster In anderer Quelle: 10. Menuet - H. N. Philipp 1784 (Anm. S. Wascher);
T:Urheber unbekannt Erstbeleg: vor 1767 (Datum in der schriftlichen Quelle) Datum in der hier transkribierten schriftlichen Quelle: 1799
C:Urheber unbekannt
C:Erstbeleg: vor 1767 (Datum in der schriftlichen Quelle)
C:Datum in der hier transkribierten schriftlichen Quelle: 1799
%%score 1 2
L:1/8
M:3/4
K:D
V:1 treble nm="Primo"
V:2 treble nm="Secondo"
V:1
 f4 g2 | af d2 f2 | ec A2 g2 | Tf4 e2 | fe f2 ^g2 | a2 ^gfed | c2 dcBc |{B} A6 :: a2 gfed | %9
 ef g2 f2 | egfedc | df e4 | d2 b2 ab | g2 fe f2 | egfedc | d6 :| %16
V:2
 !fermata!d4 e2 | fd F2 A2 | GE C2 e2 | d4 c2 | dc d2 B2 | c2 BA^GF | E2 DCDB, |{D} C6 :: f2 edcB | %9
 cd e2 d2 | cedAFE | Fd c4 | df g2 fg | e2 dc d2 | cedAFE | F6 :| %16

